!!!OTL: Winterrosen
!!!OTL-incipit:Es wollt' ein Maegdelein Wasser hol'n
!!!ARE: Europa, Mitteleuropa, Deutschland (BRD), Franken
!!!YOR: 7, S. 61
!!    1855 gedruckt in Leipzig
!!!SCT: Q0145G
!!!TXL: @@DE
!!!YEM: Copyright 1995, estate of Helmut Schaffrath.
**kern	**text
*ICvox	*
*M6/8	*
*k[f#]	*
*G:	*
!LO:TX:a:t=187 Franken	!
{8d	Es
=1	=1
4g	wollt'
8b	ein
8.bL	Mag-
16a	-de-
8gJ	-lein
=2	=2
4f#	Was-
8a	-ser
4cc}	hol'n
{8a	an
=3	=3
4b	ei-
8dd	-nem
(8.ddL	küh-
16cc)	.
8bJ	-len
=4	=4
4.b	Brun-
4a;}	-nen;
{(16gL	ein
16bJ)	.
=5	=5
4dd	schnee-
8b	-weis
4b	Hemd-
8gg	-lein
=6	=6
4dd	hat
8cc	sie
4a}	an,
{8cc	da-
=7	=7
4b	-durch
8g	scheint
(8ddL	ihr
8cc)	.
8bJ	die
=8	=8
4.a	Son-
4g}	-ne.
==	==
!!!AGN: Ballade, Verfuehrung, verlorene Ehre
!!!ONB: ESAC (Essen Associative Code) Database: BALLADE
!!!AMT: compound duple
!!!AIN: vox
!!!EED: Helmut Schaffrath
!!!EEV: 1.0
!!!source: Deutsche Volkslieder mit ihren Melodien Balladen. Herausgegeben vom Deutschen Volksliedarchiv. Siebenterer Band. Freiburg/Breisgau 1982.
!!!page: 61
!!!ENC: Anna Maria Matuszewska
!!!EEV: 2025/03/07
*-	*-
